public/assets/images/brand/01.svg

<svg width="97" height="30" viewBox="0 0 97 30" fill="none" xmlns="http://www.w3.org/2000/svg">
<g clip-path="url(#clip0_21_37)">
<path d="M14.5472 0.5C6.51364 0.5 0 6.99322 0 15.0016C0 23.01 6.51364 29.5033 14.5472 29.5033C22.5808 29.5033 29.0945 23.01 29.0945 15.0016C29.0912 6.99322 22.5808 0.5 14.5472 0.5ZM21.2174 21.4136C20.9565 21.8395 20.3987 21.9761 19.9715 21.7127C16.5564 19.6317 12.2575 19.1603 7.19207 20.3146C6.70281 20.4251 6.21682 20.1227 6.10592 19.635C5.99502 19.1473 6.29836 18.6628 6.78762 18.5522C12.3293 17.2907 17.0816 17.8369 20.9173 20.1715C21.3446 20.4316 21.4784 20.9876 21.2174 21.4136ZM22.9983 17.4663C22.6689 17.9995 21.9709 18.1653 21.4392 17.8369C17.5317 15.4406 11.5693 14.748 6.94418 16.1462C6.34403 16.3282 5.71125 15.9901 5.5286 15.3918C5.34921 14.7935 5.68516 14.1627 6.28532 13.9807C11.5693 12.3842 18.1351 13.158 22.6265 15.9088C23.1581 16.2404 23.3245 16.9363 22.9983 17.4663ZM23.1516 13.3531C18.4613 10.5796 10.7278 10.3227 6.2527 11.6786C5.53512 11.8965 4.77514 11.49 4.55661 10.7747C4.33807 10.0594 4.74579 9.30177 5.46336 9.08392C10.6006 7.52971 19.143 7.82885 24.5411 11.0251C25.1869 11.4087 25.3989 12.2411 25.0173 12.8849C24.6324 13.5255 23.7942 13.7368 23.1516 13.3531ZM39.5743 13.8864C37.0628 13.2881 36.616 12.8687 36.616 11.9908C36.616 11.1584 37.402 10.5991 38.5697 10.5991C39.7015 10.5991 40.8268 11.0251 42.001 11.8997C42.0369 11.9257 42.0826 11.9355 42.125 11.929C42.1674 11.9225 42.2065 11.8997 42.2326 11.8607L43.459 10.1374C43.508 10.0659 43.4949 9.96833 43.4264 9.91305C42.0239 8.79129 40.4485 8.24829 38.6023 8.24829C35.8919 8.24829 33.9968 9.87078 33.9968 12.1923C33.9968 14.683 35.6309 15.5641 38.4556 16.2437C40.8594 16.7964 41.2639 17.2582 41.2639 18.084C41.2639 19.001 40.4452 19.57 39.1242 19.57C37.6597 19.57 36.4627 19.079 35.1254 17.9215C35.0927 17.8922 35.0471 17.8792 35.0047 17.8824C34.959 17.8857 34.9199 17.9052 34.8905 17.941L33.5141 19.5732C33.4554 19.6415 33.4651 19.7423 33.5304 19.8008C35.0862 21.186 37.0008 21.9175 39.0655 21.9175C41.988 21.9175 43.8765 20.3243 43.8765 17.8629C43.883 15.782 42.6338 14.631 39.5743 13.8896V13.8864ZM50.4945 11.4185C49.229 11.4185 48.1885 11.916 47.3339 12.9337V11.7859C47.3339 11.6949 47.2589 11.6201 47.1709 11.6201H44.9235C44.8322 11.6201 44.7605 11.6949 44.7605 11.7859V24.5317C44.7605 24.6228 44.8355 24.6976 44.9235 24.6976H47.1709C47.2622 24.6976 47.3339 24.6228 47.3339 24.5317V20.5096C48.1918 21.4688 49.229 21.937 50.4945 21.937C52.8495 21.937 55.2305 20.1325 55.2305 16.6794C55.2338 13.2231 52.8495 11.4185 50.4945 11.4185ZM52.6146 16.6761C52.6146 18.4352 51.5285 19.661 49.9727 19.661C48.4364 19.661 47.2752 18.3799 47.2752 16.6761C47.2752 14.9756 48.4364 13.6913 49.9727 13.6913C51.5024 13.6913 52.6146 14.9464 52.6146 16.6761ZM61.3365 11.4185C58.3063 11.4185 55.9318 13.7466 55.9318 16.7152C55.9318 19.6545 58.29 21.9566 61.3006 21.9566C64.3438 21.9566 66.7248 19.6382 66.7248 16.6794C66.7215 13.727 64.3568 11.4185 61.3365 11.4185ZM61.3365 19.6805C59.7252 19.6805 58.5086 18.3897 58.5086 16.6761C58.5086 14.9561 59.6828 13.7108 61.2973 13.7108C62.9184 13.7108 64.1448 15.0016 64.1448 16.7152C64.1448 18.4319 62.9641 19.6805 61.3365 19.6805ZM73.196 11.6233H70.7204V9.10018C70.7204 9.00914 70.6486 8.93761 70.5573 8.93761H68.31C68.2187 8.93761 68.1437 9.01239 68.1437 9.10018V11.6233H67.0608C66.9694 11.6233 66.8977 11.6981 66.8977 11.7892V13.7173C66.8977 13.8083 66.9694 13.8831 67.0608 13.8831H68.1437V18.8676C68.1437 20.8836 69.1483 21.9045 71.1346 21.9045C71.9403 21.9045 72.6122 21.7387 73.2417 21.381C73.2939 21.3518 73.3232 21.2965 73.3232 21.238V19.4041C73.3232 19.3489 73.2939 19.2936 73.245 19.2643C73.196 19.2351 73.1341 19.2318 73.0851 19.2578C72.6513 19.4757 72.2338 19.5765 71.7642 19.5765C71.0433 19.5765 70.7204 19.2513 70.7204 18.5165V13.8799H73.196C73.2874 13.8799 73.3591 13.8051 73.3591 13.714V11.7859C73.3624 11.6981 73.2906 11.6233 73.196 11.6233ZM81.8167 11.6331V11.3242C81.8167 10.4138 82.1657 10.0073 82.9518 10.0073C83.4215 10.0073 83.7966 10.1016 84.2174 10.2415C84.2695 10.2577 84.325 10.2512 84.3641 10.2187C84.4065 10.1862 84.4326 10.1374 84.4326 10.0854V8.19627C84.4326 8.12473 84.387 8.0597 84.3152 8.0402C83.8684 7.90688 83.3008 7.77357 82.4463 7.77357C80.3685 7.77357 79.2726 8.94086 79.2726 11.1454V11.6201H78.193C78.1017 11.6201 78.0266 11.6949 78.0266 11.7827V13.7205C78.0266 13.8116 78.1017 13.8864 78.193 13.8864H79.2726V21.5761C79.2726 21.6672 79.3444 21.742 79.4357 21.742H81.683C81.7743 21.742 81.8494 21.6672 81.8494 21.5761V13.8766H83.9499L87.1659 21.5631C86.8006 22.3695 86.4418 22.5321 85.9526 22.5321C85.5579 22.5321 85.1404 22.415 84.7131 22.1809C84.674 22.1581 84.6251 22.1549 84.5827 22.1679C84.5403 22.1842 84.5044 22.2134 84.4848 22.2557L83.7216 23.9237C83.6857 24.0017 83.7151 24.096 83.7933 24.1351C84.5892 24.5642 85.3068 24.7496 86.194 24.7496C87.8542 24.7496 88.774 23.979 89.5829 21.9045L93.4839 11.8542C93.5035 11.8022 93.4969 11.7469 93.4676 11.7014C93.4382 11.6558 93.386 11.6298 93.3338 11.6298H90.9919C90.9202 11.6298 90.8582 11.6754 90.8354 11.7404L88.438 18.5685L85.8123 11.7339C85.7895 11.6689 85.7275 11.6298 85.659 11.6298L81.8167 11.6331ZM76.8198 11.6233H74.5725C74.4812 11.6233 74.4061 11.6981 74.4061 11.7892V21.5696C74.4061 21.6607 74.4812 21.7355 74.5725 21.7355H76.8198C76.9111 21.7355 76.9862 21.6607 76.9862 21.5696V11.7859C76.9862 11.7436 76.9698 11.7014 76.9372 11.6689C76.9046 11.6396 76.8622 11.6233 76.8198 11.6233ZM75.7076 7.1688C74.8171 7.1688 74.093 7.88738 74.093 8.77503C74.093 9.66269 74.8171 10.3845 75.7076 10.3845C76.598 10.3845 77.3188 9.66594 77.3188 8.77503C77.3188 7.88738 76.598 7.1688 75.7076 7.1688ZM95.4083 14.7675C94.5178 14.7675 93.8264 14.0554 93.8264 13.1905C93.8264 12.3257 94.5276 11.6038 95.4181 11.6038C96.3085 11.6038 97 12.3159 97 13.1808C97 14.0457 96.2955 14.7675 95.4083 14.7675ZM95.4181 11.7599C94.6059 11.7599 93.9927 12.4037 93.9927 13.1905C93.9927 13.9774 94.6026 14.6114 95.4083 14.6114C96.2172 14.6114 96.8337 13.9709 96.8337 13.1808C96.8337 12.3939 96.2237 11.7599 95.4181 11.7599ZM95.7671 13.3434L96.2139 13.9677H95.8356L95.4311 13.3954H95.0854V13.9677H94.769V12.3126H95.5094C95.8943 12.3126 96.1487 12.511 96.1487 12.8394C96.1552 13.1125 95.9954 13.2783 95.7671 13.3434ZM95.4996 12.5955H95.0886V13.119H95.4996C95.7051 13.119 95.829 13.0182 95.829 12.8556C95.829 12.6866 95.7051 12.5955 95.4996 12.5955Z" fill="#050D20"/>
</g>
<defs>
<clipPath id="clip0_21_37">
<rect width="97" height="29" fill="white" transform="translate(0 0.5)"/>
</clipPath>
</defs>
</svg>

<svg xmlns="http://www.w3.org/2000/svg" width="97" height="30" fill="none" viewBox="0 0 97 30"><g clip-path="url(#a)"><path fill="#050d20" d="M14.547.5C6.514.5 0 6.993 0 15.002c0 8.008 6.514 14.501 14.547 14.501s14.548-6.493 14.548-14.501C29.09 6.993 22.58.5 14.547.5m6.67 20.914a.905.905 0 0 1-1.245.299c-3.416-2.081-7.715-2.553-12.78-1.398a.906.906 0 0 1-1.086-.68.903.903 0 0 1 .682-1.083c5.541-1.261 10.294-.715 14.13 1.62.427.26.56.816.3 1.242m1.781-3.948a1.133 1.133 0 0 1-1.559.37c-3.907-2.395-9.87-3.088-14.495-1.69a1.133 1.133 0 1 1-.659-2.165c5.284-1.597 11.85-.823 16.342 1.928.531.331.698 1.027.371 1.557m.154-4.113c-4.69-2.773-12.424-3.03-16.9-1.674a1.36 1.36 0 0 1-1.695-.904 1.356 1.356 0 0 1 .906-1.691c5.138-1.554 13.68-1.255 19.078 1.941.646.384.858 1.216.476 1.86a1.366 1.366 0 0 1-1.865.468m16.422.533c-2.511-.598-2.958-1.017-2.958-1.895 0-.833.786-1.392 1.954-1.392 1.132 0 2.257.426 3.431 1.3a.17.17 0 0 0 .124.03.16.16 0 0 0 .108-.068l1.226-1.724a.167.167 0 0 0-.033-.224c-1.402-1.122-2.977-1.665-4.824-1.665-2.71 0-4.605 1.623-4.605 3.944 0 2.491 1.634 3.372 4.459 4.052 2.403.552 2.808 1.014 2.808 1.84 0 .917-.819 1.486-2.14 1.486-1.464 0-2.661-.491-3.999-1.648a.17.17 0 0 0-.12-.04.16.16 0 0 0-.114.059l-1.377 1.632a.163.163 0 0 0 .016.228c1.556 1.385 3.47 2.117 5.535 2.117 2.923 0 4.812-1.594 4.812-4.055.006-2.081-1.243-3.232-4.303-3.973zm10.92-2.467c-1.265 0-2.306.497-3.16 1.515v-1.148a.166.166 0 0 0-.163-.166h-2.248a.164.164 0 0 0-.163.166v12.746c0 .09.076.166.163.166h2.248a.164.164 0 0 0 .163-.166V20.51c.858.959 1.895 1.427 3.16 1.427 2.355 0 4.736-1.805 4.736-5.258.004-3.456-2.38-5.26-4.735-5.26m2.12 5.257c0 1.76-1.085 2.985-2.641 2.985-1.537 0-2.698-1.281-2.698-2.985 0-1.7 1.161-2.985 2.698-2.985 1.53 0 2.642 1.255 2.642 2.985m8.723-5.257c-3.03 0-5.405 2.328-5.405 5.296 0 2.94 2.358 5.242 5.369 5.242 3.043 0 5.424-2.319 5.424-5.278-.003-2.952-2.368-5.26-5.388-5.26m0 8.261c-1.612 0-2.828-1.29-2.828-3.004 0-1.72 1.174-2.965 2.788-2.965 1.621 0 2.848 1.29 2.848 3.004 0 1.717-1.18 2.965-2.808 2.965m11.859-8.057H70.72V9.1a.16.16 0 0 0-.163-.162H68.31a.166.166 0 0 0-.166.162v2.523H67.06a.164.164 0 0 0-.163.166v1.928c0 .091.071.166.163.166h1.083v4.985c0 2.016 1.004 3.037 2.99 3.037.806 0 1.478-.166 2.108-.524a.16.16 0 0 0 .081-.143v-1.834c0-.055-.03-.11-.078-.14a.17.17 0 0 0-.16-.006 2.84 2.84 0 0 1-1.32.319c-.722 0-1.045-.326-1.045-1.06V13.88h2.476a.164.164 0 0 0 .163-.166v-1.928a.16.16 0 0 0-.163-.163m8.62.01v-.309c0-.91.35-1.317 1.136-1.317.47 0 .845.095 1.265.235.052.016.108.01.147-.023a.17.17 0 0 0 .069-.134V8.196a.16.16 0 0 0-.118-.156 6.2 6.2 0 0 0-1.869-.266c-2.078 0-3.173 1.167-3.173 3.371v.475h-1.08a.166.166 0 0 0-.166.163v1.938c0 .09.075.165.166.165h1.08v7.69c0 .091.071.166.163.166h2.247a.167.167 0 0 0 .166-.166v-7.7h2.1l3.217 7.687c-.365.806-.724.97-1.213.97-.395 0-.813-.118-1.24-.352a.17.17 0 0 0-.13-.013.17.17 0 0 0-.098.088l-.763 1.668a.16.16 0 0 0 .071.211c.796.43 1.514.615 2.401.615 1.66 0 2.58-.771 3.389-2.846l3.9-10.05a.17.17 0 0 0-.015-.153.16.16 0 0 0-.134-.071h-2.342a.17.17 0 0 0-.157.11l-2.397 6.829-2.626-6.835a.16.16 0 0 0-.153-.104zm-4.996-.01h-2.247a.167.167 0 0 0-.167.166v9.78c0 .092.075.166.166.166h2.248a.167.167 0 0 0 .166-.165v-9.784a.17.17 0 0 0-.049-.117.18.18 0 0 0-.117-.046M75.708 7.17a1.61 1.61 0 0 0-1.615 1.606 1.614 1.614 0 0 0 3.226 0c0-.888-.721-1.606-1.611-1.606m19.7 7.599c-.89 0-1.582-.713-1.582-1.578a1.59 1.59 0 0 1 1.592-1.586c.89 0 1.582.712 1.582 1.577s-.704 1.587-1.592 1.587m.01-3.008c-.812 0-1.425.644-1.425 1.43 0 .787.61 1.421 1.415 1.421.81 0 1.426-.64 1.426-1.43 0-.787-.61-1.421-1.416-1.421m.35 1.583.446.625h-.378l-.405-.573h-.346v.573h-.316v-1.655h.74c.385 0 .64.198.64.526.006.274-.154.44-.382.504m-.268-.748h-.411v.524h.41c.206 0 .33-.1.33-.263 0-.17-.124-.26-.33-.26"/></g><defs><clipPath id="a"><path fill="#fff" d="M0 .5h97v29H0z"/></clipPath></defs></svg>
